X:1
T:Quant tant me mectz
T:Pierre Certon
T:Source : Livre VII de chansons nouvelles à 4--Paris---N.du Chemin---1550. Editor : André Vierendeels (19/01/18).
T:Quant tant me mectz
T:©
T:©
T:©
C:Pierre Certon
Z:©
%%score [ 1 [ 2 3 ] 4 ]
L:1/8
Q:1/4=120
M:2/2
K:F
V:1 treble nm="Alto" snm="A"
V:2 treble-8 nm="Tenor 1" snm="T 1"
V:3 treble-8 nm="Tenor 2" snm="T 2"
V:4 bass nm="Bass" snm="B"
V:1
 A4 G2 G2 | F6 E2 | D2 D2 E4 | z2 E2 E2 E2 | F2 F2 G4 | C4 z4 | A4 G2 G2 | F6 E2 | D2 D2 E4 | %9
w: Quant tant me|mectz de-|vant mes yeulx,|de gra- ces|en m'a- my-|e,|qui me voir-|roit ia-|loux des dieux,|
 z2 E2 E2 E2 | F2 F2 G4 | C4 z2 F2 | F2 G2 A4- | A2 A2 G2 F2 | G4 A2 A2 | G2 B2 A2 B2- | %16
w: me blas- me-|roit on my-|e: mais|si n'ay ie|_ peur ny de-|mi- e, pour|tout as- seu- *|
[M:2/4] B2 A2 |[M:3/4] G4 F2 | A2 G2 F2 | E4 E2 | D2 D4 |[M:2/2] C2 C2 D4 | E2 E2 F3 G | %23
w: * ré,|qu'el- le|nour- rist gra-|c'et beaul-|té en|paix, a- vec|foy à pei- *|
 AB A4 G2- | G2 F2 G4- | G4 z2 G2 | A2 A2 F2 F2 | G4 E4 | z2 F2 B2 B2 | A2 G2 FGAF | G2 F4 E2 | %31
w: * * * ne|_ ia- mais,|_ en|un lieu sans que-|rel- le,|en un lieu|sans que- rel- * * *||
 F8 |] %32
w: le.|
V:2
 f4 d2 e2 | c6 c2 | A2 B2 c4 | z2 c2 c2 c2 | d2 c2 B4 | A4 z4 | f4 d2 e2 | c6 c2 | A2 B2 c4 | %9
w: Quant tant me|mectz de-|vant mes yeulx,|de gra- ces|en m'a- my-|e,|qui me voir|roit ia-|loux des dieux,|
 z2 c2 c2 c2 | d2 c2 B4 | A4 z2 c2 | d2 G2 c2 c2 | f4 d4- | d2 e2 f2 f2 | e2 f4 d2 |[M:2/4] d4 | %17
w: me blas- me-|roit on my-|e: mais|si n'ay ie ny|de- mi-|* e, pour tout|as- seu- *|ré,|
[M:3/4] d4 d2 | c2 e2 d2 | c4 c2 | B2 G4 |[M:2/2] A4 z2 A2 | c4 c4 | z2 c4 c2 | d4 d4- | d4 e4 | %26
w: qu'el- le|nour- rist gra-|c'et beaul-|té en|paix, a-|vec foy|à pei-|ne ia-|* mais,|
 z2 c2 d2 d2 | B2 B2 G3 A | B4 F2 d2 | f2 e2 d4- | d2 d2 c4 | A8 |] %32
w: en un lieu|sans que- rel- *|* le, en|un lieu sans|_ que- rel-|le,|
V:3
 c4 B2 B2 | A6 G2 | F2 F2 G2 E2 | A2 A2 G3 F/E/ | DC F4 E2 | F4 z4 | c4 B2 B2 | A6 G2 | %8
w: Quant tant me|mectz de-|vant mes yeulx, de|gra- ces en _ _|_ _ m'a- my-|e,|qui me voir-|roit ia-|
 F2 F2 G2 E2 | A2 A2 G3 F/E/ | DC F4 E2 | F2 F2 A4 | B4 A4 | c4 B2 A2 | B4 c2 F2 | c2 d2 c2 B2- | %16
w: loux des dieux, me|blas- me- roit _ _|_ _ on my-|e: mais si|n'ay ie|peur ny de-|mi- e, pour|tout as- seu- *|
[M:2/4] BG A2 |[M:3/4] B4 A2 | A2 c2 A2 | A4 A2 | F2 D4 |[M:2/2] E2 E2 F4 | G4 A4 | A2 F2 G4 | %24
w: * * ré,|qu'el- le|nour- rist gra-|c'et beaul-|té en|paix, a- vec|foy à|pei- ne ia-|
 A4 B2 c2- |"^-natural" c2 B2 c4- | c4 z2 A2 | d4 c2 c2 | d2 d2 B2 B2 | c3 B AG F2 | B3 A G4 | %31
w: |* * mais,|_ en|un lieu sans|que- rel- le, sans|que- * * * *|rel- * *|
 F8 |] %32
w: le.|
V:4
 F,4 G,2 E,2 | F,6 C,2 | D,2 D,2 C,4 | z2 A,,2 C,2 C,2 | B,,2 A,,2 G,,4 | F,,4 z4 | F,4 G,2 E,2 | %7
w: Quant tant me|mectz de-|vant mes yeulx,|de gra- ces|en m'a- my-|e,|qui me voir-|
 F,6 C,2 | D,2 D,2 C,4 | z2 A,,2 C,2 C,2 | B,,2 A,,2 G,,4 | F,,4 z2 F,2 | D,2 E,2 F,4- | %13
w: roit ia-|loux des dieux,|me blas- me-|roit on my-|e, mais|n'ay ie peur|
 F,2 F,2 G,2 D,2 | G,4 F,4 | z2 B,,2 F,2 G,2 |[M:2/4] G,2 F,2 |[M:3/4] G,4 D,2 | F,2 C,2 D,2 | %19
w: _ ny de- mi-|* e,|pour tout as-|seu- ré,|qu'el- le|nour- rist gra-|
 A,,4 C,2 | D,2 B,,4 |[M:2/2] A,,2 A,,2 D,4 | C,4 F,4- | F,4 E,4 | D,4 G,4- | G,4 C,4 | %26
w: c'et beaul-|té en|paix, a- vec|foy à|_ pei-|ne ia-|mais, _|
 z2 A,,2 D,2 D,2 | G,,2 G,,2 C,4 | B,,6 A,,G,, | F,,2 C,2 D,2 D,2 | B,,2 B,,2 C,4 | F,,8 |] %32
w: en un lieu|sans que- rel-|le, _ _|_ en un lieu|sans que- rel-|le.|

